/* XPM */
static char * teamos_default_xpm[] = {
"32 32 7 1",
"  c #0b1318",
". c #102028",
"+ c #173128",
"@ c #23443a",
"# c #3d6b59",
"$ c #73b37c",
"% c #d8b06a",
"                                ",
"                                ",
"                                ",
"                                ",
"                                ",
"                                ",
"               %%               ",
"             %%%%%%             ",
"           ..%%%%%%..           ",
"        .................       ",
"     .......................    ",
"  ............................  ",
"...++++++++++++++++++++++++++...",
"++++++++++++++++++++++++++++++++",
"+++++++++++@@@@@@@@@@+++++++++++",
"++++++++@@@@@@@@@@@@@@@@++++++++",
"++++++@@@@@@@@##@@@@@@@@@@++++++",
"++++@@@@@@@@########@@@@@@@@++++",
"++@@@@@@@@############@@@@@@@@++",
"@@@@@@@@################@@@@@@@@",
"@@@@@@####################@@@@@@",
"@@@@########################@@@@",
"@@############################@@",
"################################",
"################################",
"################################",
"################################",
"################################",
"################################",
"################################",
"################################",
"################################",
"################################"};